X: 1588
T: Jim French's Step Tune
B: australian traditional tunes wiki
M:4/4
L:1/8
R: Step Tune
Q: 1/4=100
K:G
V:1 
A|"G"GBdB "D"c2BA|"G"GBdB"D7"c2A2|"G"GBdB"D7"c2A2|"D"FGAF "G"D3A|
"G"GBdB "D"ce BA|"G"GBdB "D"c2A2|"G"BdBG "D"DFAA|"C"G>G"D"Bd"G"g2z2|
"D"z2(3G"G"Bd g2d2|"C"fece "G"d3d|"D"defg a3a|agfe"G"d3z|
"G"z2(3GBd g2d2|"C"fece "D"d3c|"G"BdBG "D"DFAA|"C"GGBd"G"g4||
% abcbook-tune_id 6342d53af53e8318c3bde851


% abcbook-boost 0
% abcbook-tablature 
% abcbook-transpose 
% abcbook-lastupdated 1665324372659
% abcbook-soundfonts 
% abcbook-repeats 1
% NFF Book 2018

